src/icons/face-hide.svg

<?xml version="1.0" encoding="UTF-8"?>
<svg width="512px" height="512px" viewBox="0 0 512 512" version="1.1" xmlns="http://www.w3.org/2000/svg" xmlns:xlink="http://www.w3.org/1999/xlink">
    <!-- Generator: Sketch 62 (91390) - https://sketch.com -->
    <title>face-hide</title>
    <desc>Created with Sketch.</desc>
    <g id="face-hide" stroke="none" stroke-width="1" fill="none" fill-rule="evenodd">
        <path d="M218.3,212.45 C218.2,212.35 216.7,209.55 214.3,199.15 L214.1,198.35 L213.8,197.55 C213.1,195.55 213.4,194.65 213.5,194.35 C215.5,187.85 216.2,184.65 216.2,181.55 L216.2,180.55 L216.1,179.55 C215.1,171.25 214,162.65 213,154.35 C212.3,146.85 216.4,137.85 224.9,127.55 C233.2,117.55 246.4,112.75 265.5,112.75 C284.5,112.75 297.8,117.55 306.1,127.55 C310.1,132.35 313,136.85 315,140.95 L327.1,128.85 C324.7,124.65 321.9,120.75 318.8,116.95 C307.4,103.05 289.7,96.15 265.7,96.15 C241.7,96.15 223.9,103.05 212.4,116.95 C200.9,130.75 195.7,143.75 196.7,155.75 C197.7,164.65 198.8,173.25 199.8,181.55 C199.8,182.65 199.2,185.25 197.8,189.35 C196.5,193.55 196.6,197.95 198.2,202.65 C200.3,212.05 202.4,218.35 204.5,221.45 C206.6,224.55 208.2,228.75 209.2,233.95 C209.9,237.75 210.6,241.25 211.4,244.45 L225.3,230.55 C223.9,223.25 221.6,217.25 218.3,212.45 M416,396.85 L414.4,365.55 C412.3,355.15 391.2,342.35 351,327.15 C349.7,326.75 348.4,326.25 347.1,325.55 C322.6,316.65 309.8,311.75 308.7,310.65 C305.6,308.55 304,299.65 304,284.05 C304,277.75 306.3,271.65 311,265.65 C315.7,259.65 319.4,249.05 322,233.95 C323,228.75 324.6,224.55 326.7,221.45 C328.1,219.35 329.5,215.75 330.9,210.95 L304.6,237.15 C302,249.35 299.2,254.05 298.1,255.55 C291.1,264.45 287.6,274.15 287.6,284.05 C287.6,302.85 289.4,316.05 298,323.15 C300.8,325.75 305,327.85 340.8,340.75 C342.2,341.45 343.8,342.05 345.5,342.65 C385.5,357.75 395.8,366.65 398.2,369.35 L398.7,380.35 L161.4,380.35 L144.9,396.85 L416,396.85 Z M390,123.95 L111,402.85 L96,387.85 L374.9,108.85 L390,123.95 Z" id="Shape" fill="#000000" fill-rule="nonzero"></path>
    </g>
</svg>

<svg xmlns="http://www.w3.org/2000/svg" width="512" height="512" viewBox="0 0 512 512">
    <path d="M218.3 212.45c-.1-.1-1.6-2.9-4-13.3l-.2-.8-.3-.8c-.7-2-.4-2.9-.3-3.2 2-6.5 2.7-9.7 2.7-12.8v-1l-.1-1c-1-8.3-2.1-16.9-3.1-25.2-.7-7.5 3.4-16.5 11.9-26.8 8.3-10 21.5-14.8 40.6-14.8 19 0 32.3 4.8 40.6 14.8 4 4.8 6.9 9.3 8.9 13.4l12.1-12.1c-2.4-4.2-5.2-8.1-8.3-11.9-11.4-13.9-29.1-20.8-53.1-20.8s-41.8 6.9-53.3 20.8c-11.5 13.8-16.7 26.8-15.7 38.8 1 8.9 2.1 17.5 3.1 25.8 0 1.1-.6 3.7-2 7.8-1.3 4.2-1.2 8.6.4 13.3 2.1 9.4 4.2 15.7 6.3 18.8 2.1 3.1 3.7 7.3 4.7 12.5.7 3.8 1.4 7.3 2.2 10.5l13.9-13.9c-1.4-7.3-3.7-13.3-7-18.1M416 396.85l-1.6-31.3c-2.1-10.4-23.2-23.2-63.4-38.4-1.3-.4-2.6-.9-3.9-1.6-24.5-8.9-37.3-13.8-38.4-14.9-3.1-2.1-4.7-11-4.7-26.6 0-6.3 2.3-12.4 7-18.4 4.7-6 8.4-16.6 11-31.7 1-5.2 2.6-9.4 4.7-12.5 1.4-2.1 2.8-5.7 4.2-10.5l-26.3 26.2c-2.6 12.2-5.4 16.9-6.5 18.4-7 8.9-10.5 18.6-10.5 28.5 0 18.8 1.8 32 10.4 39.1 2.8 2.6 7 4.7 42.8 17.6 1.4.7 3 1.3 4.7 1.9 40 15.1 50.3 24 52.7 26.7l.5 11H161.4l-16.5 16.5H416zm-26-272.9l-279 278.9-15-15 278.9-279 15.1 15.1z"/>
</svg>
